src/assets/img/chat/chat.svg

<svg width="32" height="32" viewBox="0 0 32 32" fill="none" xmlns="http://www.w3.org/2000/svg">
<path d="M22.6667 2.66663H9.33335C5.65335 2.66663 2.66669 5.63996 2.66669 9.30663V17.28V18.6133C2.66669 22.28 5.65335 25.2533 9.33335 25.2533H11.3334C11.6934 25.2533 12.1734 25.4933 12.4 25.7866L14.4 28.44C15.28 29.6133 16.72 29.6133 17.6 28.44L19.6 25.7866C19.8534 25.4533 20.2534 25.2533 20.6667 25.2533H22.6667C26.3467 25.2533 29.3334 22.28 29.3334 18.6133V9.30663C29.3334 5.63996 26.3467 2.66663 22.6667 2.66663ZM10.6667 16C9.92002 16 9.33335 15.4 9.33335 14.6666C9.33335 13.9333 9.93335 13.3333 10.6667 13.3333C11.4 13.3333 12 13.9333 12 14.6666C12 15.4 11.4134 16 10.6667 16ZM16 16C15.2534 16 14.6667 15.4 14.6667 14.6666C14.6667 13.9333 15.2667 13.3333 16 13.3333C16.7334 13.3333 17.3334 13.9333 17.3334 14.6666C17.3334 15.4 16.7467 16 16 16ZM21.3334 16C20.5867 16 20 15.4 20 14.6666C20 13.9333 20.6 13.3333 21.3334 13.3333C22.0667 13.3333 22.6667 13.9333 22.6667 14.6666C22.6667 15.4 22.08 16 21.3334 16Z" fill="white"/>
</svg>

<svg width="32" height="32" fill="none" xmlns="http://www.w3.org/2000/svg"><path d="M22.667 2.667H9.333c-3.68 0-6.666 2.973-6.666 6.64v9.306c0 3.667 2.986 6.64 6.666 6.64h2c.36 0 .84.24 1.067.534l2 2.653c.88 1.173 2.32 1.173 3.2 0l2-2.653a1.352 1.352 0 0 1 1.067-.534h2c3.68 0 6.666-2.973 6.666-6.64V9.307c0-3.667-2.986-6.64-6.666-6.64ZM10.667 16c-.747 0-1.334-.6-1.334-1.333 0-.734.6-1.334 1.334-1.334.733 0 1.333.6 1.333 1.334C12 15.4 11.413 16 10.667 16ZM16 16c-.747 0-1.333-.6-1.333-1.333 0-.734.6-1.334 1.333-1.334s1.333.6 1.333 1.334C17.333 15.4 16.747 16 16 16Zm5.333 0C20.587 16 20 15.4 20 14.667c0-.734.6-1.334 1.333-1.334.734 0 1.334.6 1.334 1.334 0 .733-.587 1.333-1.334 1.333Z" fill="#fff"/></svg>
